**kern	**kern	**kern	**kern
*MM76	*MM76	*MM76	*MM76
*k[b-e-a-d-]	*k[b-e-a-d-]	*k[b-e-a-d-]	*k[b-e-a-d-]
*M4/4	*M4/4	*M4/4	*M4/4
*tb64	*tb64	*tb64	*tb64
=1	=1	=1	=1
1r	1F	2F	1r
.	.	2A-	.
=2	=2	=2	=2
1r	2E	2G	1r
.	2E-	[2c	.
=3	=3	=3	=3
1r	2D	2c]	1r
.	2D-	[2B-	.
=4	=4	=4	=4
1r	2C	2B-]	1r
.	[2F	2A-	.
=5	=5	=5	=5
1r	2F]	1G	1r
.	2E	.	.
=6	=6	=6	=6
1r	2.F	4A-	1r
.	.	4c	.
.	.	[2f	.
.	4G	.	.
=7	=7	=7	=7
1r	2A-	4f]	1r
.	.	4e-	.
.	2A	4d-	.
.	.	4c	.
=8	=8	=8	=8
1r	2B-	4d-	1r
.	.	4a-	.
.	2B	4g	.
.	.	4f	.
=9	=9	=9	=9
1C	2G	2e-	2cc
.	2c	[2g	2ee-
=10	=10	=10	=10
2BB	2d	4g]	2dd
.	.	4f	.
2BB-	[2c	[2e	[2gg
=11	=11	=11	=11
2AA	2.c]	4e]	2gg]
.	.	4c	.
2AA-	.	2f	[2ff
.	4c	.	.
=12	=12	=12	=12
2GG	2B-	1g	2ff]
[2C	2c	.	2ee-
=13	=13	=13	=13
2C]	4A-	4f	1dd
.	4F	8g	.
.	.	8a-	.
2BB	2d	4g	.
.	.	4f	.
=14	=14	=14	=14
1C	2G	[1e-	4cc
.	.	.	4b-
.	4c	.	4a-
.	4B-	.	4g
=15	=15	=15	=15
1D-	4A-	4e-]	[1f
.	4c	4e-	.
.	4B-	4d-	.
.	4A-	4c	.
=16	=16	=16	=16
2E-	1G	1B-	4f]
.	.	.	4f
2EE-	.	.	4e-
.	.	.	4d-
=17	=17	=17	=17
2.AA-	2A-	2c	4c
.	.	.	4e-
.	2c	[2e-	[2a-
4GG	.	.	.
=18	=18	=18	=18
2FF	4c	2e-]	4a-]
.	4A-	.	4cc
2BB-	2F	2d	4b-
.	.	.	4a-
=19	=19	=19	=19
1EE-	4G	2B-	2g
.	4A-	.	.
.	4B-	4g	[2ee-
.	4c	4a	.
=20	=20	=20	=20
1BB-	2B-	1f	4ee-]
.	.	.	4dd
.	4e-	.	4cc
.	4d	.	4b-
=21	=21	=21	=21
[1FF	4c	4e-	1a
.	4e-	4g	.
.	4d	4f	.
.	4c	4e-	.
=22	=22	=22	=22
1FF]	4B	4d	2.a-
.	4c	4e-	.
.	[2d	[2f	.
.	.	.	4a-
=23	=23	=23	=23
1GG	4d]	4f]	[1g
.	4d	4f	.
.	4c	4e-	.
.	4B	4d	.
=24	=24	=24	=24
2C	1c	2e-	4g]
.	.	.	4b
2E-	.	2r	4cc
.	.	.	4gg
=25	=25	=25	=25
2D	2B	1r	4ff
.	.	.	4ee-
[2G	2B-	.	4dd
.	.	.	4gg
=26	=26	=26	=26
2G]	2A	1r	4cc
.	.	.	8dd
.	.	.	8ee-
[2F	2A-	.	4dd
.	.	.	4cc
=27	=27	=27	=27
2F]	2G	1r	4b
.	.	.	8cc
.	.	.	8dd
2E-	[2c	.	4g
.	.	.	4gg
=28	=28	=28	=28
1D	2c]	1r	4ff
.	.	.	8gg
.	.	.	8aa-
.	2B	.	4gg
.	.	.	4ff
=29	=29	=29	=29
1C	1r	4c	4ee-
.	.	4d	4dd
.	.	4e-	4cc
.	.	4e	4b-
=30	=30	=30	=30
1FF	1r	4f	2a-
.	.	4c	.
.	.	4f	2a
.	.	4e-	.
=31	=31	=31	=31
2BB-	1r	4d-	4b-
.	.	2f	4dd-
2C	.	.	4g
.	.	4e	4b-
=32	=32	=32	=32
2F	1r	2.f	4a-
.	.	.	4cc
2r	.	.	[2ff
.	.	4a-	.
=33	=33	=33	=33
1r	1r	4g	2ff]
.	.	8a-	.
.	.	8b-	.
.	.	4cc	2ee
.	.	4g	.
=34	=34	=34	=34
1r	1r	2a-	4ff
.	.	.	4cc
.	.	2a	4f
.	.	.	4ee-
=35	=35	=35	=35
1r	1r	2b-	4dd
.	.	.	4gg
.	.	2b	4g
.	.	.	4ff
=36	=36	=36	=36
1r	1r	4cc	2ee
.	.	4g	.
.	.	4a-	4ff
.	.	4f	4aa-
=37	=37	=37	=37
1r	1r	4b-	2dd
.	.	4f	.
.	.	4g	4ee-
.	.	4e-	4gg
=38	=38	=38	=38
1r	1r	4a-	2cc
.	.	4e-	.
.	.	2f	4dd-
.	.	.	4cc
=39	=39	=39	=39
1r	1r	4g	4b
.	.	4f	4dd
.	.	4e-	4g
.	.	4d	4b
=40	=40	=40	=40
1r	1c	4e-	2cc
.	.	4f	.
.	.	4g	2ee-
.	.	4f#	.
=41	=41	=41	=41
1r	2B	4g	2dd
.	.	4f	.
.	2B-	4e	[2gg
.	.	4d	.
=42	=42	=42	=42
1r	2A	2c	2gg]
.	2A-	4B	[2ff
.	.	4c	.
=43	=43	=43	=43
1r	2G	4B	2ff]
.	.	4b	.
.	[2c	4g	2ee-
.	.	4a-	.
=44	=44	=44	=44
1r	2c]	4f	1dd
.	.	8g	.
.	.	8a-	.
.	2B	4g	.
.	.	4f	.
=45	=45	=45	=45
1r	[1c	4e	4cc
.	.	4g	4b-
.	.	4f	4a-
.	.	4e	4g
=46	=46	=46	=46
1F	1c_	2f	2a-
.	.	2a-	2ff
=47	=47	=47	=47
2E	2c]	2g	1gg
2E-	2e-	[2cc	.
=48	=48	=48	=48
2D	1f	2cc]	1ff
2D-	.	[2b-	.
=49	=49	=49	=49
2C	4g	2b-]	2ee
.	4e	.	.
[2F	2c	2a-	2ff
=50	=50	=50	=50
2F]	2d-	1g	2b-
2E	[2c	.	4cc
.	.	.	4b-
=51	=51	=51	=51
2F	2c]	1f	4a-
.	.	.	4a
2D-	4B-	.	4b-
.	4f	.	4b
=52	=52	=52	=52
1C	4e	4g	2cc
.	4d	4f	.
.	4c	4e	2r
.	4e	4b-	.
=53	=53	=53	=53
2D-	2f	2a-	1ff
2D	2r	4b-	.
.	.	4a-	.
=54	=54	=54	=54
2E-	1B-	1g	2ee-
2E	.	.	2dd-
=55	=55	=55	=55
2F	4A-	4f	2.cc
.	4B-	4g	.
[2C	[2c	4a-	.
.	.	4g	4b-
=56	=56	=56	=56
2C]	2c]	4f	2a-
.	.	4e-	.
2D-	[2B-	2f	4g
.	.	.	4f
=57	=57	=57	=57
2C	2B-]	2e	2cc
[2F	2A-	2f	4dd-
.	.	.	4cc
=58	=58	=58	=58
2F]	1G	2d-	2b-
2E	.	[2c	4cc
.	.	.	4b-
=59	=59	=59	=59
1F	2F	4c]	4a-
.	.	4g	4b-
.	2r	2a-	[2cc
=60	=60	=60	=60
2E	1c	2g	4cc]
.	.	.	4b-
2E-	.	[2f	2a
=61	=61	=61	=61
2D	2B	2f]	2dd
2D-	2B-	2g	2ee
=62	=62	=62	=62
2C	2A	4cc	2ee-
.	.	4a	.
[2F	2A-	2f	4dd-
.	.	.	4cc
=63	=63	=63	=63
2F]	2G	2d	2b
2E	[2c	2g	2b-
=64	=64	=64	=64
2F	2c]	2f	2a-
2G	2B	4e-	[2g
.	.	4d	.
=65	=65	=65	=65
1C	4c	4e-	2.g]
.	4B-	4d	.
.	2A-	[2c	.
.	.	.	[4f
=66	=66	=66	=66
1CC	4G	1c]	2.f]
.	4A-	.	.
.	2B-	.	.
.	.	.	4e
=67	=67	=67	=67
[1FF	2A-	2c	2f
.	2F	2A	2ff 2cc
=68	=68	=68	=68
1FF_	2G	2B-	2ee 2dd-
.	2A	2c	2cc 2ee-
=69	=69	=69	=69
1FF_	2B-	2d	2b- 2dd
.	2B-	2e	2g 2dd-
=70	=70	=70	=70
1FF]	1c	1f	1a 1cc
==	==	==	==
*-	*-	*-	*-
